X:1
T:Suffer the Children
T:Suffer the Children
T:Robert Lowry, 1893
T:George Edward Day, 1892
T:Public Domain Courtesy of the Cyber Hymnal™
C:Robert Lowry, 1893
Z:Public Domain
Z:Courtesy of the Cyber Hymnal™
%%score ( 1 2 ) ( 3 4 )
L:1/8
Q:1/4=93
M:4/4
K:G
V:1 treble 
V:2 treble 
V:3 bass 
V:4 bass 
V:1
 [B,G]2 [DB]>[CA] [B,G]3 [DF] | [CE][EG][DF][CE] [CE]2 [B,D]2 | [DG]2 [DA]>[DA] [DB]2 [Gd]2 | %3
w: 1.~“Come un- to Me!” still|thro’ the ag- es fall- ing,|Like heav’n- ly voic- es|
w: 2.~“For- bid them not,” but|with a prayer- ful bless- ing,|Teach them to trust His|
w: 3.~For such as they the|Fa- ther’s home in glo- ry|Waits with its joys a-|
 [Fc][GB][DA][EG] [FA]4 | [GB]2 [FA]>[FB] [EG]3 [^DF] | E[DG][Dc][DB] [DB]2 [DA]>[DA] | %6
w: mu- sic- al and sweet,|The lov- ing Sav- ior|ten- der- ly is call- ing The|
w: ne- ver fail- ing care;|And feel His dear hands|ten- der- ly ca- ress- ing Their|
w: cross the cys- tal sea;|Then tell them oft the|old yet sweet new sto- ry, With|
 [DB]2 (AG) [DG]2 [DF]2 | [DG]8 ||"^Refrain" [FA]4 [FA]3 [FA] | [GB]6 z2 | [Ac]4 [GB]3 [GB] | %11
w: child- ren * round His|feet.||||
w: fair heads * bowed in|prayer.|Come un- to|Me,|come un- to|
w: pa- tience, * ten- der-|ly.||||
 [FA]6 z2 | [GB]4 [EG]3 [EG] | (A2 B2) [Ec]2 [EA]2 | [DG]4 [DF]3 [DF] | [DG]8 |] %16
w: |||||
w: Me,|Suf- fer the|child- * ren to|come un- to|Me.|
w: |||||
V:2
 x8 | x8 | x8 | x8 | x8 | E x7 | x2 E2 x4 | x8 || x8 | x8 | x8 | x8 | x8 | E4 x4 | x8 | x8 |] %16
V:3
 [G,,G,]2 [G,,G,]>[G,,G,] [G,,G,]3 [B,,G,] | [B,,G,][B,,G,][B,,G,][B,,G,] [G,,G,]2 [G,,G,]2 | %2
w: ||
 [B,,G,]2 [D,F,]>[D,F,] G,2 [G,B,]2 | [A,D][G,D][F,D][E,^C] [D,D]4 | %4
w: * * * Come, *||
 [G,D]2 [D,C]>[D,D] [E,B,]3 [B,,A,] | [C,G,][B,,G,][A,,F,][G,,G,] [D,G,]2 [D,F,]>[D,F,] | %6
w: ||
 G,2 [C,C]2 [D,B,]2 (A,C) | [G,,B,]8 || [D,D]2 z2 [D,D]2 z2 | [G,D]2 [G,D]>[G,D] [G,D]2 z2 | %10
w: come, * * * *||come un-|to Me; Come, come,|
 [F,D]2 z2 [G,D]2 z2 | [D,D]2 [D,D]>[D,D] [D,D]2 z2 | [G,,D]4 [E,B,]3 [E,B,] | %13
w: come un-|to Me, * *||
 ([C,A,]2 [B,,^G,]2) [A,,A,]2 [C,A,]2 | [D,B,]4 [D,A,]3 [D,C] | [G,,B,]8 |] %16
w: |||
V:4
 x8 | x8 | x4 G,2 x2 | x8 | x8 | x8 | G,2 x2 D,2 x2 | x8 || x8 | x8 | x8 | x8 | x8 | x8 | x8 | %15
 x8 |] %16

